X: 042
T: Blow the Candle Out
M: 2/4
L: 1/8
Q: 1/4=104
B: George Petrie Collection, 1855, 1882
K: Eb % 3 flats
V: 1
%
B/A/ | G>A GE | C>D EF | GA {G}F>E |
E3 E/F/ | G>A GF | Gc cd | ef d>c |
c3 E/F/ | G>A GF | Gc cd |
e>g f/e/d/e/ | c>d ec |
B>A G/F/E/D/ | C>D EF |
G>{B}A G/F/E/D/ | E3 |]

